src/assets/images/eyes/23.svg

<svg width="32" height="32" viewBox="0 0 32 32" fill="none" xmlns="http://www.w3.org/2000/svg">
<path fill-rule="evenodd" clip-rule="evenodd" d="M11.0937 14.1562C12.19 14.1562 12.5423 14.8535 12.592 15.0536C12.7251 15.5896 13.2676 15.9162 13.8036 15.783C14.3396 15.6498 14.6661 15.1074 14.533 14.5714C14.3084 13.6673 13.2891 12.1562 11.0937 12.1562C8.89837 12.1562 7.87909 13.6673 7.65449 14.5714C7.52134 15.1074 7.8479 15.6498 8.38389 15.783C8.91989 15.9162 9.46234 15.5896 9.59549 15.0536C9.6452 14.8535 9.99745 14.1562 11.0937 14.1562Z" fill="url(#paint0_radial_921_62)"/>
<path d="M18.8062 17.1706C19.6962 16.8406 20.6562 16.6406 21.6662 16.6406C22.6762 16.6406 23.6363 16.8306 24.5163 17.1706C25.3663 16.3906 25.9062 15.2906 25.9062 14.0406C25.9062 11.6906 24.0062 9.79065 21.6562 9.79065C19.3063 9.79065 17.4062 11.6906 17.4062 14.0406C17.4162 15.2906 17.9562 16.4006 18.8062 17.1706Z" fill="white"/>
<path d="M21.2087 16C22.3133 16 23.2087 15.1046 23.2087 14C23.2087 12.8954 22.3133 12 21.2087 12C20.1042 12 19.2087 12.8954 19.2087 14C19.2087 15.1046 20.1042 16 21.2087 16Z" fill="url(#paint1_linear_921_62)"/>
<defs>
<radialGradient id="paint0_radial_921_62" cx="0" cy="0" r="1" gradientUnits="userSpaceOnUse" gradientTransform="translate(11.0937 14.8125) rotate(90) scale(3.3125 4.82169)">
<stop offset="0.337213" stop-color="#4D274B"/>
<stop offset="0.628228" stop-color="#514047"/>
<stop offset="1" stop-color="#4E2553"/>
<stop offset="1" stop-color="#4A342F"/>
</radialGradient>
<linearGradient id="paint1_linear_921_62" x1="22.7472" y1="12" x2="21.063" y2="15.2842" gradientUnits="userSpaceOnUse">
<stop stop-color="#553B3E"/>
<stop offset="1" stop-color="#3D2432"/>
</linearGradient>
</defs>
</svg>

<svg width="32" height="32" fill="none" xmlns="http://www.w3.org/2000/svg"><path fill-rule="evenodd" clip-rule="evenodd" d="M11.094 14.156c1.096 0 1.448.697 1.498.898a1 1 0 1 0 1.941-.483c-.225-.904-1.244-2.415-3.44-2.415-2.195 0-3.214 1.511-3.439 2.415a1 1 0 0 0 1.941.483c.05-.2.402-.898 1.499-.898z" fill="url(#a)"/><path d="M18.806 17.17c.89-.33 1.85-.53 2.86-.53 1.01 0 1.97.19 2.85.53a4.22 4.22 0 0 0 1.39-3.13c0-2.35-1.9-4.25-4.25-4.25s-4.25 1.9-4.25 4.25a4.25 4.25 0 0 0 1.4 3.13z" fill="#fff"/><path d="M21.209 16a2 2 0 1 0 0-4 2 2 0 0 0 0 4z" fill="url(#b)"/><defs><radialGradient id="a" cx="0" cy="0" r="1" gradientUnits="userSpaceOnUse" gradientTransform="matrix(0 3.3125 -4.82169 0 11.094 14.813)"><stop offset=".337" stop-color="#4D274B"/><stop offset=".628" stop-color="#514047"/><stop offset="1" stop-color="#4E2553"/><stop offset="1" stop-color="#4A342F"/></radialGradient><linearGradient id="b" x1="22.747" y1="12" x2="21.063" y2="15.284" gradientUnits="userSpaceOnUse"><stop stop-color="#553B3E"/><stop offset="1" stop-color="#3D2432"/></linearGradient></defs></svg>
